icons/chart-bar.svg

<svg width="24" height="24" viewBox="0 0 24 24" fill="none" xmlns="http://www.w3.org/2000/svg">
<path fill-rule="evenodd" clip-rule="evenodd" d="M12 2C12.5523 2 13 2.44772 13 3V20C13 20.5523 12.5523 21 12 21C11.4477 21 11 20.5523 11 20V3C11 2.44772 11.4477 2 12 2ZM19 8C19.5523 8 20 8.44772 20 9V20C20 20.5523 19.5523 21 19 21C18.4477 21 18 20.5523 18 20V9C18 8.44772 18.4477 8 19 8ZM5 12C5.55228 12 6 12.4477 6 13V20C6 20.5523 5.55228 21 5 21C4.44772 21 4 20.5523 4 20V13C4 12.4477 4.44772 12 5 12Z" fill="black"/>
</svg>

<svg
  width="24"
  height="24"
  viewBox="0 0 24 24"
  xmlns="http://www.w3.org/2000/svg"
>
  <path
    fill-rule="evenodd"
    clip-rule="evenodd"
    d="M12 2a1 1 0 0 1 1 1v17a1 1 0 1 1-2 0V3a1 1 0 0 1 1-1zm7 6a1 1 0 0 1 1 1v11a1 1 0 1 1-2 0V9a1 1 0 0 1 1-1zM5 12a1 1 0 0 1 1 1v7a1 1 0 1 1-2 0v-7a1 1 0 0 1 1-1z"
  />
</svg>
